svgs/thin/objects-align-bottom.svg

<svg xmlns="http://www.w3.org/2000/svg" viewBox="0 0 512 512"><!--! Font Awesome Pro 6.5.1 by @fontawesome - https://fontawesome.com License - https://fontawesome.com/license (Commercial License) Copyright 2023 Fonticons, Inc. --><path d="M8 512c-4.4 0-8-3.6-8-8s3.6-8 8-8l496 0c4.4 0 8 3.6 8 8s-3.6 8-8 8L8 512zM176 400c17.7 0 32-14.3 32-32l0-320c0-17.7-14.3-32-32-32H112C94.3 16 80 30.3 80 48l0 320c0 17.7 14.3 32 32 32h64zm-64 16c-26.5 0-48-21.5-48-48L64 48C64 21.5 85.5 0 112 0h64c26.5 0 48 21.5 48 48l0 320c0 26.5-21.5 48-48 48H112zm288-16c17.7 0 32-14.3 32-32l0-192c0-17.7-14.3-32-32-32H336c-17.7 0-32 14.3-32 32l0 192c0 17.7 14.3 32 32 32h64zm-64 16c-26.5 0-48-21.5-48-48l0-192c0-26.5 21.5-48 48-48h64c26.5 0 48 21.5 48 48l0 192c0 26.5-21.5 48-48 48H336z"/></svg>

<svg xmlns="http://www.w3.org/2000/svg" viewBox="0 0 512 512"><!--! Font Awesome Pro 6.1.1 by @fontawesome - https://fontawesome.com License - https://fontawesome.com/license (Commercial License) Copyright 2022 Fonticons, Inc. --><path d="M8 512C3.582 512 0 508.4 0 504C0 499.6 3.582 496 8 496H504C508.4 496 512 499.6 512 504C512 508.4 508.4 512 504 512H8zM112 416C85.49 416 64 394.5 64 368V48C64 21.49 85.49 0 112 0H176C202.5 0 224 21.49 224 48V368C224 394.5 202.5 416 176 416H112zM208 368V48C208 30.33 193.7 16 176 16H112C94.33 16 80 30.33 80 48V368C80 385.7 94.33 400 112 400H176C193.7 400 208 385.7 208 368zM336 416C309.5 416 288 394.5 288 368V176C288 149.5 309.5 128 336 128H400C426.5 128 448 149.5 448 176V368C448 394.5 426.5 416 400 416H336zM432 368V176C432 158.3 417.7 144 400 144H336C318.3 144 304 158.3 304 176V368C304 385.7 318.3 400 336 400H400C417.7 400 432 385.7 432 368z"/></svg>
